X: 13119
T: First
R: reel
M: 4/4
K: Aminor
|:E2EE FEFE|E2EE c2AF|E2EE FEFE|dcB^G GAFD|
E2EE FEFE|E2EE c2AF|E2EE FEFE|1 dcBA ^G2GG:|2 dcBA ^GAcd||
|:eAAA fAA^g|aecA ^GAcd|eAAA fAAg|fedB c2cd|
eAAA fAA^g|aecA ^GABd|cBAE EDFE|DCB,^G, A,4:|

